X: 47
T: DAVY CRABBE
%R: reel
B: Jean White "100 Popular Hornpipes, Reels, Jigs and Country Dances", Boston 1880 p.21
F: http://www.loc.gov/resource/sm1880.09124.0#seq-1
Z: 2014 John Chambers <jc:trillian.mit.edu>
M: 2/4
L: 1/16
K: C
% - - - - - - - - - - - - - - - - - - - - - - - - - - - - -
G2 |\
c2c2c2 ec | {^f}g2{f}g2 ag=fe |\
f2d2d2 gf | efge c3G |\
c2c2 ecec | {^f}g2{f}g2 ag=fe |
ecfd ecdB | c2B2c2 :|\
|: GF |\
EGce gege | FAcf a2GF |\
EGce geag | fedc BAGF |
EGce gege | FAcf a2gf |\
egfe dcBd | c2e2c2 :|\
|: dc |\
Bg^fg ecge | fgaf d2dc |
Bg^fg =fdfa | gfed c2G2 |\
c2ce d2df | e2eg f3a |\
gece fdBd | c2e2c2 H:|
% - - - - - - - - - - - - - - - - - - - - - - - - - - - - -

%%sep 1 1 500
%%sep 1 1 500
